!!!!SEGMENT: pl-cz--ii-8--003_stefani-jozef--requiem-chryste-jezu.krn
!!!cenid: 18xx:1061
!!!COM: Stefani, Józef
!!!COM-rismid: pe30024097
!!!CDT: 1800/04/16-1876/03/19
!!!CNT: Polish
!!!OPR: Requiem
!!!OTL: Chryste Jezu
!!!OMV: 003
!!!PDT:
!!!AGN: Sacred; Requiem
!!!SMS-siglum: PL-CZ
!!!SMS-shelfmark: II-8
!!!SMS-shelfwork: 001-003 M
!!!SMS-variant:
!!!SMS-altvar:
!!!NIFC-rismid: 300001272
!!!URL-scan: http://repozytorium.nifc.pl/skany/pl-cz-nut--ii-8
!!!ONB-nifc: UWAGA: części Requiem: Racz wiekuisty pokój, Dzień ów dzień – Trąba dziwnym głosem ryknie, Chryste Jezu, Święty, Baranku Boży
!!!key:
**kern	**fba	**kern	**dynam	**kern	**text	**kern	**text	**kern	**text	**kern	**text
*part5	*part5	*part5	*part5	*part4	*part4	*part3	*part3	*part2	*part2	*part1	*part1
*staff6	*staff6	*staff5	*	*staff4	*staff4	*staff3	*staff3	*staff2	*staff2	*staff1	*staff1
*	*	*	*	*group1	*	*group1	*	*group1	*	*group1	*
*I"Organo.	*	*	*	*I"Baſso	*	*I"Tenore.	*	*I"Sorpano 2do	*	*I"Sorpano 1mo	*
*I'org	*	*	*	*I'B	*	*I'T	*	*I'S 2	*	*I'S 1	*
*Iorgan	*	*	*	*Ibass	*	*Itenor	*	*Isoprn	*	*Isoprn	*
*ICklav	*	*	*	*ICvox	*	*ICvox	*	*ICvox	*	*ICvox	*
*IGcont	*	*	*	*IGcoro	*	*IGcoro	*	*IGcoro	*	*IGcoro	*
*clefF4	*	*clefG2	*	*clefF4	*	*clefC4	*	*clefC1	*	*clefC1	*
*k[b-e-a-]	*	*k[b-e-a-]	*	*k[b-e-a-]	*	*k[b-a-e-]	*	*k[e-a-b-]	*	*k[e-a-b-]	*
*E-:	*	*E-:	*	*E-:	*	*E-:	*	*E-:	*	*E-:	*
*M3/2	*	*M3/2	*	*M3/2	*	*M3/2	*	*M3/2	*	*M3/2	*
=1	=1	=1	=1	=1	=1	=1	=1	=1	=1	=1	=1
*2\right	*	*	*	*2\right	*	*	*	*	*	*	*
!	!	!	!	!	!	!	!	!LO:TX:t=P:problem:przy kluczu błędnie e- f- b-	!	!	!
!	!	!LO:TX:a:t=Offertorium	!	!LO:TX:a:t=Offertorium	!	!LO:TX:a:t=Offertorium	!	!LO:TX:a:t=Offertorium	!	!LO:TX:a:t=Offertorium	!
!LO:TX:t=P:problem:kolejność znaków BB- E- A-	!	!LO:TX:a:B:t=Adagio.	!LO:DY:b=2:t=pia&colon;	!LO:TX:a:B:t=Adagio	!	!LO:TX:a:B:t=Adagio	!	!LO:TX:a:B:t=Adagio	!	!LO:TX:a:B:t=Adagio	!
2E-\	.	1b- 1g	p	(2E-\	Chrẏ-	(>2G/	Chrẏ-	1g	Chry-	1b-	Chrẏ-
2G\	.	.	.	2G\)	.	2B-/)	.	.	.	.	.
*	*	*	*	*	*	*2\right	*	*	*	*2\right	*
2B-\	.	2a- 2f/	.	2B-\	-ste	2d/	-ste	2f/	-ste	2a-\	-ste
=2	=2	=2	=2	=2	=2	=2	=2	=2	=2	=2	=2
2Bn\	.	2a- 2f/	.	(2Bn\	Je-	(2d\	Je-	(>2f/	Je-	(2a-\	Je-
2c\	.	2g 2e-/	.	2c\)	.	2e-\)	.	2e-/)	.	2g\)	.
2c\	.	2g 2e-/	.	2c\	-su	2e-\	-su	2e-/	-su	2g\	-su
!	!	!	!	!LO:LB:g=original	!	!LO:LB:g=original	!	!	!	!LO:LB:g=original	!
=3	=3	=3	=3	=3	=3	=3	=3	=3	=3	=3	=3
*	*	*	*	*^	*	*	*	*	*	*	*
!	!	!	!	!	!LO:S:s=1:note:problem:note-level slur	!	!	!	!	!	!	!
2AA-/	.	1cc 1a-	.	(2A-/	(>2AA-\	Kro-	1c	Kro-	1a-	Kro-	1cc	Kro-
2C/	.	.	.	2c/)	2C\)	.	.	.	.	.	.	.
2c 2En/	.	2b- 2g/	.	2en/	2En\	-lu	2c\	-lu	2g/	-lu	2b-\	-lu
!	!	!	!	!	!	!	!	!	!LO:LB:g=original	!	!	!
=4	=4	=4	=4	=4	=4	=4	=4	=4	=4	=4	=4	=4
*^	*	*	*	*	*	*	*	*	*	*	*	*
1c	2En\	.	2b- 2g/	.	(2en/	2En\	chwa-	1c	chwa-	(>2g/	Chwa-	(2b-\	chwa-
.	2F\	.	2a- 2f/	.	2f/)	2F\	.	.	.	2f/)	.	2a-\)	.
2c 2F\	2rGGyy	.	2a- 2f/	.	2f/	2F\	-ły	2c\	-ły	2f/	-łẏ	2a-\	-łẏ
*v	*v	*	*	*	*v	*v	*	*	*	*	*	*	*
=5	=5	=5	=5	=5	=5	=5	=5	=5	=5	=5	=5
!	!	!	!LO:DY:b=2:t=for	!	!	!	!	!	!	!	!
1B- 1BB-	.	1f 1d	f	1BB-	Spraw	1d	spraw	1a-	Spraw	1f	Spraw
2B- 2BB-/	.	2f 2d/	.	2BB-/	by	2d\	bẏ	2a-/	bẏ	2f/	bẏ
!	!	!	!	!	!	!	!	!	!	!LO:LB:g=original	!
=6	=6	=6	=6	=6	=6	=6	=6	=6	=6	=6	=6
*	*	*^	*	*	*	*	*	*	*	*	*
1E-	.	1g	1.e-	.	1E-	Du-	1e-	Du-	1g	Du-	1g	Du-
2C/	.	2a-/	.	.	2C/	-sze	2e-\	-szę	2e-/	-sze	2a-/	-sze
!LO:LB:g=original	!	!LO:LB:g=original	!	!	!LO:LB:g=original	!	!	!	!	!	!	!
=7	=7	=7	=7	=7	=7	=7	=7	=7	=7	=7	=7	=7
2GG/	.	2b-/	1.e-	.	(2GG/	wszẏst-	1e-	wszẏst-	1e-	wszyst-	(2b-\	wszẏst-
2AA-/	.	2cc/	.	.	2AA-/)	.	.	.	.	.	2cc\)	.
2C/	.	2a-/	.	.	2C/	-kich	[2e-\	-kich	2e-/	-kich	2a-\	-kich
*	*	*v	*v	*	*	*	*	*	*	*	*	*
!	!	!	!	!	!	!LO:LB:g=original	!	!LO:LB:g=original	!	!	!
=8	=8	=8	=8	=8	=8	=8	=8	=8	=8	=8	=8
2BB-/	.	1.g 1.e-	.	(2BB-/	wier-	(2e-\]	.	1.e-	wier-	1.g	wier-
2C/	.	.	.	2C/)	.	1c)	wier-	.	.	.	.
2AAn/	.	.	.	2AAn/	.	.	.	.	.	.	.
=9	=9	=9	=9	=9	=9	=9	=9	=9	=9	=9	=9
1.BB-	.	(>2f 2d/	.	1BB-	-nẏch	2d\	-nẏch	2d/	-nẏch	1f	-nẏch
.	.	2g 2e-/	.	.	.	2r	.	2r	.	.	.
.	.	2a- 2f/)	.	2r	.	2r	.	2r	.	2r	.
!	!	!	!	!LO:PB:g=original	!	!	!	!	!	!LO:LB:g=original	!
=10	=10	=10	=10	=10	=10	=10	=10	=10	=10	=10	=10
!	!	!	!	!LO:TX:t=P:problem:kolejność znaków BB- E- A-	!	!	!	!	!	!	!
2E-\	.	1b- 1g	.	(2E-\	Wol-	1B-	Wol-	1g	Wol-	1b-	Wol-
2G\	.	.	.	2G\)	.	.	.	.	.	.	.
2B-\	.	2a- 2f/	.	2B-\	-ne	2d\	-ne	2f/	-ne	2a-/	-ne
!	!	!	!	!	!	!LO:PB:g=original	!	!	!	!	!
=11	=11	=11	=11	=11	=11	=11	=11	=11	=11	=11	=11
2Bn\	.	2a- 2f/	.	(2Bn\	od	(2d\	od	(>2f/	od	(>2a-/	od
2c\	.	2g 2e-/	.	2c\)	.	2e-\)	.	2e-/)	.	2g/)	.
2c\	.	2g 2e-/	.	2c\	cier-	2e-\	cier-	2e-/	cier-	2g/	cier-
!	!	!	!	!	!	!	!	!LO:PB:g=original	!	!LO:PB:g=original	!
=12	=12	=12	=12	=12	=12	=12	=12	=12	=12	=12	=12
*	*	*	*	*	*	*	*	*	*	*k[b-e-a-]	*
2FF/	.	1cc 1a-	.	(2F\	-pień	1c	-pień	1a-	-pień	1cc	-pień
2AA-/	.	.	.	2A-\)	.	.	.	.	.	.	.
2C/	.	2b- 2g/	.	2c\	nie-	2c\	nie-	2g/	nie-	2b-\	nie-
!LO:PB:g=original	!	!LO:PB:g=original	!	!	!	!	!	!	!	!	!
=13	=13	=13	=13	=13	=13	=13	=13	=13	=13	=13	=13
*^	*	*	*	*	*	*	*	*	*	*	*
1.c	2En\	.	2b- 2g/	.	(2En\	-zmier-	1c	-zmier-	(>2g/	-zmier-	(2b-\	-zmier-
.	2F\	.	2a- 2f/	.	2F\)	.	.	.	2f/)	.	2a-\)	.
.	2F\	.	2a- 2f/	.	2F\	-nẏch	2c\	-nẏch	2f/	-nẏch	2a-\	-nych
*v	*v	*	*	*	*	*	*	*	*	*	*	*
!	!	!	!	!LO:LB:g=original	!	!	!	!	!	!	!
=14	=14	=14	=14	=14	=14	=14	=14	=14	=14	=14	=14
!	!	!	!LO:DY:rj:t=for.	!	!	!	!	!	!	!	!
2BB-/	.	1dd 1a- 1f	f	1B-	Wie-	1f	Wie-	1a-	Wie-	1dd	Wie-
2BB-/	.	.	.	.	.	.	.	.	.	.	.
2BBn/	.	2dd 2a- 2f/	.	2Bn\	-cznẏch	2f\	-cznẏch	2a-/	-cznẏch	2dd\	-cznẏch
!	!	!	!	!	!	!LO:LB:g=original	!	!	!	!	!
=15	=15	=15	=15	=15	=15	=15	=15	=15	=15	=15	=15
*	*	*^	*	*	*	*	*	*	*	*	*
1C	.	1ee- 1g 1e-	1rgyy	.	1c	Ciem-	1e-	ciem-	1g	Ciem-	1ee-	Ciem-
*	*	*2\right	*	*	*	*	*	*	*	*	*	*
2AA-/	.	2cc/	2e-\	.	2A-\	-no-	2e-\	-no-	2a-/	-no-	2cc\	-no-
!	!	!	!	!	!	!	!	!	!LO:LB:g=original	!	!LO:LB:g=original	!
=16	=16	=16	=16	=16	=16	=16	=16	=16	=16	=16	=16	=16
2G 2GG\	.	2b-/	1e-	.	(2G\	-śći	2e-\	-śći	1e-	-sći	(2b-\	-ści
2A- 2AA-\	.	2cc/	.	.	2A-\)	.	1e-	nie	.	.	2cc\)	.
*	*	*	*	*	*	*	*	*	*2\right	*	*	*
2An 2AAn\	.	2ff 2cc/	2reyy	.	2An\	nie	.	.	2cc\	nie	2ff\	nie
*	*	*v	*v	*	*	*	*	*	*	*	*	*
=17	=17	=17	=17	=17	=17	=17	=17	=17	=17	=17	=17
2B- 2BB-\	.	1ee- 1g	.	(2B-\	zna-	(2e-\	zna-	(1g	zna-	1.ee-	zna-
2c-X 2C-X\	.	.	.	2c-X\	.	1c)	.	.	.	.	.
2An 2AAn\	.	2ee- 2cc 2f/	.	2An\)	.	.	.	2f/)	.	.	.
!	!	!	!	!LO:LB:g=original	!	!	!	!	!	!	!
=18	=18	=18	=18	=18	=18	=18	=18	=18	=18	=18	=18
2B- 2BB-\	.	2dd 2b- 2f/	.	2B-\	-li	2B-\	-li	2f/	-li	2dd\	-li
2r	.	2r	.	2r	.	2r	.	2r	.	2r	.
2r	.	2r	.	2r	.	2r	.	2r	.	2r	.
!LO:LB:g=original	!	!LO:LB:g=original	!	!	!	!LO:LB:g=original	!	!	!	!	!
=19	=19	=19	=19	=19	=19	=19	=19	=19	=19	=19	=19
*	*	*^	*	*	*	*	*	*	*	*	*
*clefC4	*	*	*	*	*	*	*	*	*	*	*	*
!	!	!	!	!	!LO:TX:a:t=4	!	!	!	!	!	!	!
2d\	6_ 4_	2b-/	2f\	.	00.r	.	2d\	wẏr-	2f/	wyr-	2b-\	wẏr-
2d\	.	2b-/	2f\	.	.	.	2d\	-wiẏ	2f/	-wiy	2b-\	-wiy
2d\	.	2b-/	2f\	.	.	.	2d\	ie	2f/	ie	2b-\	ie
*	*	*v	*v	*	*	*	*	*	*	*	*	*
!	!	!	!	!	!	!	!	!LO:LB:g=original	!	!LO:LB:g=original	!
=20	=20	=20	=20	=20	=20	=20	=20	=20	=20	=20	=20
1e-	6 n4 -3	1cc 1an 1g-X	.	.	.	1e-	Ze	1g-X	Ze	1cc	Ze
2d\	6 3	2b- 2f/	.	.	.	2d\	Lwa	2f/	Lwa	2b-\	Lwa
=21	=21	=21	=21	=21	=21	=21	=21	=21	=21	=21	=21
*	*	*^	*	*	*	*	*	*	*	*	*
1c	7	2cc 2e-/	2reyy	.	.	.	2c\	Pasz-	2e-/	pa-	2b-\	pa-
.	6 3	1an	2e-\	.	.	.	1c	-czę-	1e-	-szczę-	1an	-szczę-
2F\	7 5 n3	.	2e- 2c\	.	.	.	.	.	.	.	.	.
*	*	*v	*v	*	*	*	*	*	*	*	*	*
=22	=22	=22	=22	=22	=22	=22	=22	=22	=22	=22	=22
*clefF4	*	*	*	*	*	*	*	*	*	*	*
2B-\	.	2b- 2d/	.	.	.	2B-\	-ki	2d/	-ki	2b-\	-ki
2F\	.	2r	.	.	.	2r	.	2r	.	2r	.
!	!	!LO:TX:b:i:t=Volti Subito.	!	!	!	!	!	!	!	!	!
2D\	.	2r	.	.	.	2r	.	2r	.	2r	.
!LO:PB:g=original	!	!LO:PB:g=original	!	!	!	!LO:LB:g=original	!	!	!	!	!
=23	=23	=23	=23	=23	=23	=23	=23	=23	=23	=23	=23
2BB-/	.	2f 2d/	.	2BB-/	od	2d\	od	2d/	Od	2f/	Od
2BB-/	.	2f 2d/	.	2BB-/	pie-	2d\	pie-	2d/	pie-	2f/	pie-
2BB-/	.	2f 2d/	.	2BB-/	-kiel-	2d\	-kiel-	2d/	-kiel-	2f/	-kiel-
!	!	!	!	!	!	!	!	!LO:LB:g=original	!	!LO:LB:g=original	!
=24	=24	=24	=24	=24	=24	=24	=24	=24	=24	=24	=24
1BB-	-6 4	1g-X 1e-	.	[>1BB-	-neẏ	(1e-	-neẏ	(>1e-X	-neẏ	(1g-X	-neẏ
2BB-/	6 4	2b- 2g-X/	.	2BB-/]	.	2e-\)	.	2g-X/)	.	2b-/)	.
=25	=25	=25	=25	=25	=25	=25	=25	=25	=25	=25	=25
!	!	!	!	!	!	!	!	!LO:SIC:v:s=(2g-/	!	!	!
2BB-/	8 6	2b- 2g-X/	.	(>2BB-/	O-	(2e-\	O-	(2g/	U-	(>2b-/	U-
2C-X/	.	2a-X 2f/	.	2C-X/)	.	2f\)	.	2f/)	.	2a-X/)	.
2AAn/	-7 5	2g-X 2e-/	.	2AAn/	-broń	2e-\	-broń	2e-/	-chroń	2g-X/	-chron
!	!	!	!	!LO:LB:g=original	!	!	!	!	!	!	!
=26	=26	=26	=26	=26	=26	=26	=26	=26	=26	=26	=26
!	!	!	!	!	!	!	!	!	!	!LO:SIC:v:s=2g-/	!
2BB-/	-6 4	2g-X 2e-/	.	2BB-/	mę-	2e-\	mę-	2e-/	mę-	2g/	mę-
2BB-/	5_ 3_	2f 2d/	.	2BB-/	-ki	2d\	-ki	2d/	-ki	2f/	-ki
2BB-/	.	2f 2d/	.	2r	.	2r	.	2r	.	2r	.
!	!	!	!	!	!	!LO:LB:g=original	!	!	!	!	!
=27	=27	=27	=27	=27	=27	=27	=27	=27	=27	=27	=27
!	!	!	!	!LO:TX:a:t=1.	!	!LO:TX:a:t=1.	!	!LO:TX:a:t=1.	!	!LO:TX:a:t=1.	!
1.BB-	x	2f 2d/	.	1.r	.	1.r	.	1.r	.	1.r	.
.	.	2g 2e-/	.	.	.	.	.	.	.	.	.
.	.	2a- 2f/	.	.	.	.	.	.	.	.	.
!	!	!	!	!	!	!	!	!LO:LB:g=original	!	!LO:LB:g=original	!
=28	=28	=28	=28	=28	=28	=28	=28	=28	=28	=28	=28
2E-\	.	1b- 1g	.	(2E-\	Mi-	1B-	Mi-	1g	Mi-	1b-	Mi-
2G\	.	.	.	2G\)	.	.	.	.	.	.	.
2B-\	.	2a- 2f/	.	2B-\	-chał	2d\	-chał	2f/	-chał	2a-\	-chał
=29	=29	=29	=29	=29	=29	=29	=29	=29	=29	=29	=29
(2Bn\	.	(2a- 2f/	.	(2Bn\	Wodz	(2d\	wodz	(>2f/	Wodz	(2a-\	Wodz
2c\)	.	2g 2e-/)	.	2c\)	.	2e-\)	.	2e-/)	.	2g\)	.
2c\	.	2g 2e-/	.	2c\	niech	2e-\	niech	2e-/	niech	2g\	niech
!LO:LB:g=original	!	!LO:LB:g=original	!	!LO:LB:g=original	!	!	!	!	!	!	!
=30	=30	=30	=30	=30	=30	=30	=30	=30	=30	=30	=30
2AA-/	.	1cc 1a-	.	(2A-\	ie	1c	ie	1a-	ie	1cc	ie
2C/	.	.	.	2c\)	.	.	.	.	.	.	.
2c 2En/	.	2b- 2g/	.	2en\	pro-	2c\	pro-	2g\	pro-	2b-\	pro-
!	!	!	!	!	!	!LO:LB:g=original	!	!	!	!	!
=31	=31	=31	=31	=31	=31	=31	=31	=31	=31	=31	=31
*^	*	*	*	*	*	*	*	*	*	*	*
!	!LO:SIC:b:v:s=2En\	!	!	!	!LO:SIC:v:s=(2en\	!	!	!	!	!	!	!
1.c	2E-\	.	2b- 2g/	.	(2e-\	-wa-	1c	-wa-	(2g\	-wa-	(2b-\	-wa-
.	2F\	.	2a- 2f/	.	2f\)	.	.	.	2f\)	.	2a-\)	.
.	2F\	.	2a- 2f/	.	2f\	-dzi	2c\	-dzi	2f\	-dzi	2a-\	-dzi
!	!	!	!	!	!	!	!	!	!LO:LB:g=original	!	!LO:LB:g=original	!
=32	=32	=32	=32	=32	=32	=32	=32	=32	=32	=32	=32	=32
!	!	!	!	!	!	!	!LO:SIC:v:l:s=na	!	!	!	!	!
1B-	1BB-	.	1f 1d	.	1BB-	na	1d	no	1a-	na	1f	na
2BB-/	2rBByy	.	2f 2d/	.	2BB-/	O-	2d\	o-	2a-/	O-	2f/	o-
*v	*v	*	*	*	*	*	*	*	*	*	*	*
!	!	!	!	!LO:LB:g=original	!	!	!	!	!	!	!
=33	=33	=33	=33	=33	=33	=33	=33	=33	=33	=33	=33
*	*	*^	*	*	*	*	*	*	*	*	*
1E-	.	1g	1.e-	.	1E-	-weẏ	1e-	-weẏ	1g	-weẏ	1g	-weẏ
2C/	.	2a-/	.	.	2C/	swia-	2e-\	swia-	2e-/	swia-	2a-/	swia-
=34	=34	=34	=34	=34	=34	=34	=34	=34	=34	=34	=34	=34
2GG/	.	2b-/	1.e-	.	(>2GG/	-tło-	1e-	-tło-	2e-/	-tło-	(2b-\	-tło-
2AA-/	.	2cc/	.	.	2AA-/)	.	.	.	2e-/	-śći	2cc\)	-śći
2C/	.	2a-/	.	.	2C/	-śći	2e-\	-śći	2e-/	po-	2a-\	po-
*	*	*v	*v	*	*	*	*	*	*	*	*	*
=35	=35	=35	=35	=35	=35	=35	=35	=35	=35	=35	=35
2BB-/	.	1.g 1.e-	.	(>2BB-/	po-	2e-\	po-	1.e-	-sa-	1.g	-sa-
2C/	.	.	.	2C/)	.	1c	-sa-	.	.	.	.
2AAn/	.	.	.	2AAn/	-sa-	.	.	.	.	.	.
!	!	!	!	!	!	!LO:LB:g=original	!	!	!	!	!
=36	=36	=36	=36	=36	=36	=36	=36	=36	=36	=36	=36
1.BB-	.	(>2f 2d/	.	2BB-/	-dzi	2d\	-dzi	2d/	-dzi	2f/	-dzi
.	.	2g 2e-/	.	2r	.	2r	.	2r	.	2r	.
.	.	2a- 2f/)	.	2r	.	2r	.	2r	.	2r	.
!	!	!	!	!LO:LB:g=original	!	!	!	!LO:LB:g=original	!	!LO:LB:g=original	!
=37	=37	=37	=37	=37	=37	=37	=37	=37	=37	=37	=37
*	*	*^	*	*	*	*	*	*	*	*	*
2E-\	.	1b- 1g	1rgyy	.	(2E-\	na	1B-	Na	1g	Na	1b-	Na
2G\	.	.	.	.	2G\)	.	.	.	.	.	.	.
2B-\	.	2a-/	2f\	.	2B-\	kto-	2d\	kto-	2f/	któ-	2a-\	kto-
*	*	*v	*v	*	*	*	*	*	*	*	*	*
!LO:PB:g=original	!	!LO:PB:g=original	!	!	!	!	!	!	!	!	!
=38	=38	=38	=38	=38	=38	=38	=38	=38	=38	=38	=38
2Bn\	.	2a- 2f 2d/	.	(2Bn\	-rą	(2d\	-rą	(>2f/	-rą	(2a-\	-rą
2c\	.	2g 2e-/	.	2c\)	.	2e-\)	.	2e-/)	.	2g\)	.
2c\	.	2g 2e-/	.	2c\	ma	2e-\	ma	2e-/	ma	2g\	ma
=39	=39	=39	=39	=39	=39	=39	=39	=39	=39	=39	=39
2FF/	.	1cc	.	(2F\	przẏ-	1c	przẏ-	1a-	przẏ-	1cc	przẏ-
2AA-/	.	.	.	2A-\)	.	.	.	.	.	.	.
2C/	.	2b-/	.	2c\	-rze-	2c\	-rze-	2g\	-rze-	2b-\	-rze-
!	!	!	!	!LO:LB:g=original	!	!	!	!	!	!	!
=40	=40	=40	=40	=40	=40	=40	=40	=40	=40	=40	=40
2En\	.	2b-/	.	(2en 2En\	-cze-	1c	-cze-	(2g\	-cze-	(2b-\	-cze-
2F\	.	2a-/	.	2f 2F\)	.	.	.	2f\)	.	2a-\)	.
2F\	.	2a-/	.	2f 2F\	-nie	2c\	-nie	2f\	-nie	2a-\	-nie
!	!	!	!	!	!	!LO:LB:g=original	!	!LO:LB:g=original	!	!LO:LB:g=original	!
=41	=41	=41	=41	=41	=41	=41	=41	=41	=41	=41	=41
2BB-/	.	1dd 1a- 1f	.	1B-	A-	1A-	A-	1f	A-	1dd	A-
2BB-/	.	.	.	.	.	.	.	.	.	.	.
2BBn/	.	2dd 2a- 2f/	.	2Bn\	-bram	2A-\	-bram	2f/	-bram	2dd\	-bram
=42	=42	=42	=42	=42	=42	=42	=42	=42	=42	=42	=42
1C	.	1ee- 1g 1e-	.	1c	i	1G	i	1e-	i	1ee-	i
2AA-/	.	2cc 2e-/	.	2A-\	Je-	2c\	je-	2a-/	je-	2cc\	je-
=43	=43	=43	=43	=43	=43	=43	=43	=43	=43	=43	=43
1BB-	.	(>2b- 2g/	.	2B-\	-go	(2B-\	-go	(>2g/	-go	(2b-\	-go
.	.	2a- 2f/)	.	(2B-\	na-	2d\)	.	2f/)	.	2a-\)	.
2BB-/	.	2f 2d/	.	2BB-/)	.	2d\	na-	2d/	na-	2f\	na-
!	!	!	!	!LO:LB:g=original	!	!	!	!	!	!	!
=44	=44	=44	=44	=44	=44	=44	=44	=44	=44	=44	=44
1C	.	(2a- 2f/	.	1C	-sie-	(2d\	-sie-	(>2f/	-Sie-	(2a-\	-sie-
.	.	2g 2e-/)	.	.	.	2e-\)	.	2e-/)	.	2g\)	.
2C/	.	2g 2e-/	.	2C/	-nie	2e-\	-nie	2e-/	-nie	2g\	-nie
!LO:LB:g=original	!	!LO:LB:g=original	!	!	!	!LO:LB:g=original	!	!LO:LB:g=original	!	!LO:LB:g=original	!
=45	=45	=45	=45	=45	=45	=45	=45	=45	=45	=45	=45
1A-	.	1cc 1a- 1e-	.	1A-	A-	1A-	A-	1e-	A-	1cc	A-
2B-\	.	2dd 2a-\/	.	2B-\	-bram	2F/	-bram	2a-/	-bram	2dd\	-bram
=46	=46	=46	=46	=46	=46	=46	=46	=46	=46	=46	=46
*	*	*^	*	*	*	*	*	*	*	*	*
1c	.	1ee- 1g	1rgyy	.	1c	j	1E-	i	1g	i	1ee-	I
4B-\	.	4dd/	2e-\	.	(4B-\	ie-	2E-/	je-	2e-/	je-	(4dd\	je-
4A-\	.	4cc/	.	.	4A-\)	.	.	.	.	.	4cc\)	.
*	*	*v	*v	*	*	*	*	*	*	*	*	*
=47	=47	=47	=47	=47	=47	=47	=47	=47	=47	=47	=47
2G\	.	2b- 2e-/	.	(2G\	-go	(2E-/	-go	[>2e-/	-go	(2b-\	-go
2B-\	.	2g 2e-/	.	2B-\)	.	2B-/)	.	2e-/]	.	2g\)	.
2BB-\	.	2f 2d 2A-</	.	2BB-/	na-	2A-/	na-	2d/	na-	2f\	na-
!	!	!	!	!LO:LB:g=original	!	!	!	!LO:LB:g=original	!	!LO:LB:g=original	!
=48	=48	=48	=48	=48	=48	=48	=48	=48	=48	=48	=48
2E-\	.	2e- 2B-< 2G</	.	2E-\	-sie-	2G/	-sie-	2e-/	-Sie-	2e-/	-sie-
2BB-\	.	2e- 2B-< 2G</	.	2E-\	-nie	2G/	-nie	2e-/	-nie	2e-/	-ńie
2GG\	.	2e- 2B-< 2G</	.	2r	.	2r	.	2r	.	2r	.
!	!	!	!	!	!	!LO:LB:g=original	!	!	!	!	!
=49	=49	=49	=49	=49	=49	=49	=49	=49	=49	=49	=49
!	!	!	!	!LO:TX:a:t=1.	!	!LO:TX:a:t=1	!	!LO:TX:a:t=1.	!	!LO:TX:a:t=1.	!
2EE-\	.	2e- 2B-< 2G</	.	1.r	.	1.r	.	1.r	.	1.r	.
2r	.	2r	.	.	.	.	.	.	.	.	.
!LO:TX:t=P:problem:fermata na kresce taktowej	!	!LO:TX:t=P:problem:fermata na kresce taktowej	!	!	!	!	!	!	!	!	!
2r	.	2r	.	.	.	.	.	.	.	.	.
==	==	==	==	==	==	==	==	==	==	==	==
*-	*-	*-	*-	*-	*-	*-	*-	*-	*-	*-	*-
!!!system-decoration: [(g1)]{s5,s6}
!!!RDF**kern: > = above
!!!RDF**kern: < = below
!!!AIN: 1 bass 1 organ 2 soprn 1 tenor
!!!ENC: Andrzej Kubiczek
!!!END: 2020-10-04
!!!ENC: Andrzej Kubiczek
!!!END: 2021-11-07
